X:1
T:PSEAUME CXLIII.
T:Domine exaudi orationem meam, auribus percipe. 
T:Claude Goudimel (1520?-1572)
T:Tiers livre contenant huit pseaumes de David..., 1557
%%score [ 1 2 3 4 ]
L:1/8
Q:1/4=120
M:4/2
K:C
V:1 treble nm="S" snm="S"
V:2 treble-8 nm="C" snm="C"
V:3 treble-8 nm="T" snm="T"
V:4 bass nm="B" snm="B"
V:1
"^A voix pareilles." z8 C16 | D8 E8 x8 | C4 D4 E12 | F4 x12 |[M:4/2] G8 G8 x4 | z4 G4 c4 c4 | %6
w: Seig-|neur Dieu,|oy l'o- rai-|son|mien- ne:|Ius- qu'à tes|
w: ||||||
 d4 d4 e4 e4 x4 | f8 e8 | z16 x4 | G8 A4 G4 x8 | E8 F4 G8 | F2 E2 D4 D4 x4 | E8 z4 G8 x4 | %13
w: au- reil- les par-|vien- ne,||Mon hum- ble|sup- pli- ca-|* * * ti-|on. Se-|
w: |||||||
 F4 E4 D4 E8 | F4 E4 D8 x8 | E8 x8 | z16 x4 | C8 B,4 C4 x8 | D12 C4 x4 | D6 E2 F4 G4 | G8 z4 G8 | %21
w: lon la vray- e|mer- cy tien-|ne||Res- ponds moy|en af-|fli- * * ti-|on. *|
w: |||||||* Res-|
 F4 G4 E8 x6 | C4 D4 D4 D8 x8 | z4 D4 x8 | D4 E4 D4 C4 | F4 E4 D8 | D4 G4 G4 G4 | F4 E4 F4 F4 | %28
w: ||A-|vec son ser- vi-|teur n'es- tri-|ve, Et en plein|iu- ge- ment n'ar-|
w: ponds moy en|af- flic- ti- on.||||||
 G16 x4 | E8 z16 | z4 C4 F4 D4 x4 | E6 D2 C4 B,4 | A,8 x8 | z4 D4 E4 G4 | C4 E4 D2 C2 D2 E2 x8 | %35
w: ri-|ve,|Pour ses of-|fen- ses luy prou-|ver:|Car de- vant|toy hom- me * * *|
w: |||||||
 F4 G8 F4 | E4 D2 C2 D8 | E8 D8 | z4 G4 F4 F4 x8 | E8 E4 A8 | G6 FE F4 G8 | z8 x8 | G16 x8 | G16 | %44
w: * qui vi-||* ve|Ius- te ne|se pour- ra|trou- * * * ver.||Làs,|las|
w: |||||||||
 z8 A8 | A4 A4 G4 G4 | G4 F4 G8 | E8 z16 | z8 z4 G4 | G4 F4 x10 | E6 D2 C4 B,4 x2 | A,8 B,8 | %52
w: las|mon en- ne- my|m'a fait guer-|re,|A|pros- ter-|né ma vie en|ter- *|
w: ||||||||
 C16 x4 | B,8 z8 | z4 G8 E4 | G4 A4 G12 | E4 G6 F2 x4 | E4 D2 C2 D8 | E8 z16 | z8 x8 | %60
w: |re,|En- cor|ne luy est|pas as- *||sés:||
w: ||||||||
 z4 C4 F4 F4 | E4 C4 E8 | D8 C4 C4 | F4 F4 E8 x8 | D8 C4 D6 x10 | C2 C8 B,4 C4 x2 | C4 C8 B,24 | %67
w: Com- me ceux|qui sont tres-|pas- sés, com-|me ceux qui|sont tres- pas-|* * * sés,|tres- pas- sés.|
w: |||||||
 z8 x12 | z8 z4 G8 | G4 E4 A8 | G4 F4 E4 x8 | A8 G24 | z8 z4 D4 x4 | D4 D4 E6 D2 x2 | %74
w: |Dont|mon a- me|ain- si em-|pres- sée.|De|dou- leur se trou-|
w: |||||||
 C4 B,4 A,8 x2 | G,8 z8 | z4 G4 F4 D4 | G4 F4 E4 D2 C2 | D8 E8 | C8 z8 x4 | z4 C8 A,4 | %81
w: ve op- pres-|sée,|Cuy dant que|m'as a- ban- * *|* don-|né:|I'en sens|
w: |||||||
 B,4 C4 D8 x2 | F8 E12 | D4 F4 E8 x4 | D8 C4 x6 | D8 z8 | D8 B,4 G,4 | A,4 A,4 G,4 G4 | %88
w: de- dans moy|ma pen-|sé- e Trou-|blé- *|e,|et mon cueur|es- ton- né. et|
w: |||||||
 F4 D4 E4 E4 x2 | D16- x14 | D16 x2 ||"^Seconde partie.""^TRIO" G,8 D4 D4 x14 | D4 B,4 C4 E4 x2 | %93
w: mon cueur es- ton-|né.||Ne ces- te|fosse ob- scure et|
w: |||||
 D2 C2 B,2 A,2 B,4 C6 | B,2 C2 D2 E8 x2 | D4 D4 D4 G4 | F4 E2 DC D8 | E16 | z16 | C8 D4 F4 | %100
w: noi- * * * * *||re, ob- scure et|noi- * * * *|re,||Des iours pas-|
w: |||||||
 E4 G4 F4 E4 x4 | D8 C8 | z4 G,4 A,8 | B,8 C6 B,2 | A,4 G,8 F,4 x8 | G,8 z16 | z4 D4- x8 | %107
w: sés i'ay eu me-|moi- re:|Là i'ay|tes oeu- *|vres me- di|tés:|Le|
w: |||||||
 D4 E4 F4 D4 | E2 D2 E2 F2 G4 G,2 A,2 x8 | B,2 C2 D6 E2 F8 | E4 D8 x8 | z8 z4 G4 x4 | G4 G4 A8 | %113
w: * fait de tes|mains * * * * re- *||ci- tés|La|de- dans à|
w: ||||||
 F4 G8 E4 x4 | F8 E8 | z4 G,4 A,4 B,4 | C4 D4 E4 G4 | F4 E6 DC D4 | E8 z8 | z4 C8 D4 | E8 C8 | %121
w: toy ie sou-|spi- re,|A toy ie|tens mes mains o|Si- * * * *|re|Et mon|ame en|
w: ||||||||
 D8 F4 E4 x2 | D4 D4 E4 G6 | FE F4 D4 D4 x2 | G4 G4 E8 x4 | E4 C4 D4 E6 x2 | D2 F4 E4 D6 | %127
w: sa grand *|cla- meur A soif|de * * toy et|te de- si-|re Com- me se-|che ter- re l'hu-|
w: ||||||
 C2 C6 B,A, B,4 x6 | C8 z4 E8 | A,4 A,4 F8 x4 | E4 D4 D4 G8 | C2 D2 E2 F2 G6 F2 x4 | %132
w: |meur. Has-|te toy, sois|moy se- cou- ra-||
w: |||||
 E2 D2 C2 B,2 x8 | C2 B,2 B,2 A,G, A,8 x4 | E,4 G8 F4 | E8 D4 D4 | F4 F4 E8 x4 | D8 G8 | F4 G4 E8 | %139
w: ||ble, L'es- prit|me faut de|moy dam- na-|ble Ne|ca- che ton|
w: |||||||
 E4 F8 E4 | D16 | z8 E8 | E4 E4 D4 C4 | F4 F4 E8 | D4 D8 C4 x4 | B,4 A,4 G,4 F,4 | G,8 G,8 | %147
w: vi- sa- ge-|beau:|Au-|tre- ment ie mén|vois sem- bla-|ble A ceux|qu'on de- valle au|tom- beau.|
w: ||||||||
 z8 z4 G4- | G4 F4 E4 D4 | E4 D4 C8 | B,16 ||"^Tierce partie." E16 | E8 G8 x4 | F8 E4 G8 | %154
w: A|* ceux qu'on de-|valle au tom-|beau.|Fais|moy donc|ouyr de bon-|
w: |||||||
 G4 A8 G4 x4 | E4 F8 E16- | E16 | z4 D8 C4 x4 | D12 D4 x4 | E8 D4 z2 D2 | D4 D4 E4 G4 | F4 F4 E8 | %162
w: ne heu- re|Ta gra- ce:||car en|toy m'as-|seu- re: Et|du che- min que|te- nir doy,|
w: ||||||||
 z4 D4 E4 E4 x4 | G12 G4 x4 | E4 F4 G8 x4 | G8 z16 | z8 z4 G,4 | C12 D4 x16 | E4 C4 F8 | E8 x16 | %170
w: Don- ne m'en|cog- nois-|san- ce seu-|re:|Car|i'ay le-|vé mon cueur|à|
w: ||||||||
 D16 x4 | z8 E16 | D4 D4 G6 F2 | E4 D4 C8 x4 | B,8 x8 | z16 | G8 F8 | E8 D4 E4 x8 | F6 E2 E8 x4 | %179
w: toy.|O|Seig- neur Dieu mon|es- pe- ran-|ce||De mes|pour- sui- vans|en- * *|
w: |||||||||
 D4 E4 C4 D4 | D4 F8 E8 | C4 D8 B,4 | B,4 E4 G4 F4 | E8 D4 C2 B,2 x2 | B,2 A,G, A,4 A,4 x4 | %185
w: ne- mys, Puis que|chés toy pour|as- seu- ran-|ce, Ie me suis|à re- fu- *|* * * * ge|
w: ||||||
 G,4 z4 G4 G4 x8 | G4 E4 A4 F4 x4 | D4 G8 F2 E2 | D8 G16- | G16 | z8 x12 | z16 | %192
w: mis. En- seig-|ne moy comme il|faut fai- * *|* re.||||
w: |||||||
 z4 G,4 A,4 B,4 x4 | C12 B,4 | C4 D4 E6 DC x8 | D8 C8 x2 | z16 x2 | z8 D8 x4 | E4 G4 F8 | %199
w: Fay que ton|es- print|de- bon- nair- * *|* re||Me|guide et meine|
w: |||||||
 E4 F4 D8 x8 | E8 z4 G16 | G4- G4 G8 | x4 G8 C4 | C8 B,4 A,4 | G,4 x12 | z4 D4 D4 D4 | %206
w: au droit sen-|tier O|Seig- * neur|en qui|ie me fi-|e.|Res- tau- re|
w: |||||||
 B,4 G,4 A,4 B,4 | C8 B,8 | z4 A,4 C4 B,4 | A,4 G,8 F,4 x4 | A,4 G,2 F,2 E,2 F,2 G,8 x4 | %211
w: moy et vi- vi-|fi- e,|Pour ton nom|craint et re-|dou- * * * * *|
w: |||||
 F,4 G,4 z2 D2 D4 | D4 E12 | E4 E4 F4 x8 | G8 E4 C4 x4 | D8 E8 x4 | F8 E8 | C8 D8 x4 | %218
w: * té: Re- ti-|re de|lan- gueur ma|vi- e, Pour|mon- strer|ta ius-|te bon-|
w: |||||||
 E8 z4 E4- x8 | E4"^* Marot has 'les'" D4 F6 F2 x4 | C4 E8 D4 | G8 F4 G4 | G4 G4 G8 | %223
w: té. Tous|* mes en- ne-|mis que m'as-|sail- lent, Fais,|par ta mer-|
w: |||||
 D4 F4 E4 E4- | E4 D8 C4 x4 | D4 D4 D4 D4 x2 | E12 F4 x4 | D4 C8 B,2 A,2 x8 | B,4 G,4 A,8 | %229
w: ci, qu'ilz de- fail-|* * lent:|Et rends con- fun-|dus et|des- truis * *||
w: ||||||
 G,8 z4 G4- x4 | G4 F4 G8 | E8 D4 D4 x16 | F8 E8 | F12 E4 | D8 C4 E4 | D4 C8 B,4 x4 | C4 E8 D4 x4 | %237
w: * Tous|* ceux qui|ma vie tra-|vail- *|lent, Car|ton hum- ble|ser- vi- teur|suis. Car ton|
w: ||||||||
 F4 E4 G4 F4 x2 | F2 E2 D2 C2 D8 x12 | B,4 D4 E4 E4 | D16 |] %241
w: hum- ble ser- vi-|teur * * * *|suis ser- vi- teur|suis.|
w: ||||
V:2
 z16 x8 | z8 G16 | A8 B8 x4 | c8 x8 |[M:4/2][K:treble-8] d8 e12 | d4 e4 c6 BA | B4 c8 z8 | %7
w: |Seig-|neur Dieu,|oy|l'o- rai-|son mien- * * *|* ne:|
 z4 G4 x8 | c4 c4 d4 f8 | e4 c4 d8 x8 | c2 B2 c2 d2 e6 d2 x4 | c8 B4 x4 | c24 | z8 z4 c8 | %14
w: Ius-|qu'à tes au- reil-|les par- vien-|||ne,|Se-|
 B4 A8 G8- x4 | G4 F4 E4 E4 | C6 D2 E8 x4 | D8 z16 | z4 C4- x12 | C4 B,4 C4 E4 | D6 C2 B,4 C6 x2 | %21
w: lon la vray-|* e mer- cy|tien- * *|ne.|Res-|* ponds moy en|af- * * fli-|
 B,2 A,2 G,2 A,4 A,4 B8 | z4 G4 x20 | G4 C4 G4 E4 | D4 C4 G8 | G4 G4 c4 G4 | A4 c4 c4 c4 | d8 d8 | %28
w: * * * * cti- on.|A-|vec son ser- vi-|teur n'es- tri-|ve, Et en plein|iu- ge- ment n'ar-|ri- ve,|
 z16 x4 | z4 G8 c8 x4 | B4 c4 c4 e8 | d8 x8 | B8 z4 G4 | A4 c4 B6 c2 | d4 e8 d6 x6 | c2 c8 B4 x2 | %36
w: |Pour ses|of- fen- ses luy|prou-|ver: Car|de- vant toy hom-|me qui vi-||
 c8 z4 G4 | G4 G4 A4 B4 | c6 B2 A2 G2 F8 x4 | G4 D8 z8 | d8- x12 | d8 e8 | z4 e4 e4 e4 x8 | %43
w: ve Ius-|te ne se pour-|ra * * * *|trou- ver.|Làs,|* las|las mon en-|
 B4 B4 d4 d4 | c16 | B4 c4 c4 B4 | A4 G4 F4 A4 | G8 C4 e4 x8 | d4 c4 B4 A4 | c6 B2 A4 d6 | %50
w: ne- my m'a fait|guer-|re, A pros- ter-|né ma vie en|ter- re, A|pros- ter- né ma|vie en ter- *|
 c2 dcBA G2 A2 B2 AG A4 | G8 F4 x4 | G6 A2 B2 c2 d4 x4 | c8 z8 | d8 d4 d4 | e4 c4 e4 d4- x4 | %56
w: |||re,|En- cor ne|luy est pas as-|
 d2 c2 c8 B2 A2 | B4 c4 G8 | z16 x8 | z16 | z4 G4 c4 c4 | B8 G4 A4 | c16 | B8 z4 A8 x4 | %64
w: |* * sés:|||Com- me ceux|qui sont tres-|pas-|sés, qui|
 E4 G8 A16 | G8 z4 d8 | d4 B4 d4- x24 | d4 c4 e12 | d4 c4 f8 x4 | e2 d2 c2 d2 e4- x4 | %70
w: sont tres- pas-|sés. Dont|mon a- me|* ain- si|em- pres- sé-||
 e4 d4 e4 e8 | d4 d4 e6 d2 x16 | c8 B4 A8 | c8 x10 | z4 d4 e4 d4 x2 | B4 d4 c4 c4 | B8 z8 | z16 | %78
w: * * e, De|dou- leur se trouve|op- pres- sé-|e,|Cuy dant que|m'as a- ban- don-|né:||
 z4 G8 E4 | F4 G4 G4 c4 x4 | B4 A4 G4 d4- | d4 c8 B6 | A2 A8 G4 A4 x2 | F2 G2 A2 B2 c4 A8 | %84
w: J'en sens|de- dans moy ma|pen- sé- e Trou-|* blé- *||* * * * * e,|
 A8 x10 | A4 F4 G4 G4 | F8 z8 | d8 B4 G4 | A6 B2 c2 d2 c6 | B2 B4 A8 B16 |[M:4/2] z16 x2 || %91
w: Et|mon cueur es- ton-|né.|Et mon cueur|es- * * * *|* * ton- né.||
 z16 x14 | z18 | z14 x4 |[M:4/2] z16 | z16 | z16 | z16 |[M:4/2] z16 | z16 | z16 x4 | z16 | %102
w: |||||||||||
[M:4/2] z16 | z16 | z24 | z8 x16 |[M:4/2] z16 | z16 | z24 | z12 x8 |[M:4/2] z16 x4 | z16 x4 | z16 | %113
w: |||||||||||
 z16 x4 | z16 |[M:4/2] z16 | z16 | z16 |[M:4/2] z16 | z16 | z16 | z18 | z14 x4 |[M:4/2] z16 | z24 | %125
w: ||||||||||||
 z16 x4 | z14 x2 |[M:4/2] z20 | z16 x4 | z20 | z16 x4 | z8 x12 |[M:4/2] z16 | z16 x4 | z16 | z16 | %136
w: |||||||||||
 z16 x4 |[M:4/2] z16 | z16 | z16 | z16 | z16 |[M:4/2] z16 | z16 | z16 x4 | z16 | z16 |[M:4/2] z16 | %148
w: ||||||||||||
 z16 | z16 |[M:4/2][K:treble-8] c16 || G8 d8 | d8 B4 e8 | e4 c4 d4 e4 x4 | c6 BA B4 c8 | %155
w: ||Fais|moy donc|ouyr de bon-|ne heu- re Ta|gra- * * * ce:|
 z4 G4 x20 | A4 G4 c6 B2 | A2 G2 A6 G2 G8 | F4 G8 z4 x4 | G4 G4 G4 x4 | D8 G8 | A4 B4 c4 G4 | %162
w: car|en toy m'as- *|* * seu- * *|* re:|Et du che-|min que|te- nir doy, Don-|
 A4 G4 A4 A4 x4 | c8 B8 x4 | c8 d8 x4 | c4 C4 E4 F4 x8 | G4 G4 A2 G2 A2 B2 | c4 B4 A12 x12 | %168
w: ne m'en co- gnois-|san- ce|seu- *|re: Car i'ay le-|vé mon cueur * * *|* * à|
 G2 F2 E4 F8 | E2 D2 C4 c4 x12 | B4 A8 G8 | F4 G16 x4 | z8 z4 B4 | c4 d4 e8 x4 | d8 x8 | %175
w: * * * toy|* * * O|Seig- * *|neur Dieu|mon|es- pe- ran-|ce,|
 z4 d4 d4 d4 | c4 B4 d4 d4 | A4 A4 z16 | z4 G4 A4 A4 x4 | c6 BA x8 | B2 A2 B2 c2 d4 A4 x4 | %181
w: Don- ne moy|plei- ne de- li-|ve- rance|Puis que chés|toy, * *|* * * * * pour|
 c4 B4"^minum in original" A8 | G4 G4 c4 e4 | d4 c4 B4 A6 | G2 G8 F4 x2 | G8 z16 | z8 z4 G8 | %187
w: as- seu- ran-|ce, Ie me suis|à re- fu- *|* * ge|mis.|Pour|
 c8 B4 e4 | e4 d4 d4 c8 x4 | B8 z8 | z4 d4 d4 c8 | B4 A4 G8 | F4 G8 z8 | z4 C4 x8 | G12 G4 x8 | %195
w: bien ta vo-|lun- té par- fai-|re,|Car tu es|mon vray Dieu|en- tier:|Me|guide et|
 A4 B4 c4 c4 x2 | B8 z8 x2 | z4 G4 A4 B4 x4 | c4 F4 G4 G4 | C4 C4 G8 x8 | C4 c8 B4 x12 | %201
w: meine au droit sen-|tier|Me guide et|meine au droit sen-|tier. O Seig-|neur en qui|
 c4 c4 G6 F2 | E4 D4 z4 G4 | G4 G4 F4 D4 | E4 F4 G2 F2 E2 D2 | E8 D8 | z8 d8 | d4 d4 e4 d4 | %208
w: ie me fi- *|* e, Res-|tau- re moy et|vi- vi- fi- * * *|* e,|Pour|ton nom craint et|
 c4 B4 A2 G2 A2 B2 | c4 B4 z4 d4 x4 | d4 d4 B4 B4 x8 | G4 G4 c8 | G4 G4 A8 | B8 c12 | B4 c8 F8 | %215
w: re- dou- * * * *|* té: Re-|ti- re de lan-|gueur ma vi-|e, Pour mon-|strer ta|ius- te bon-|
 G4 G4 A4 c8 | B4 c4 C8 | C4 x16 | G6 G2 D4 F8 x4 | C4 G8 C2 D2 x4 | E2 C2 D4 c4 c4 | c4 B12 | %222
w: té, ta ius- te|bon- té. Tous|mes|en- ne- mys qui|m'as- sail- * *|* * lent, Fais, par|ta mer-|
 A4 G4 G4 x4 | F6 ED E8 | D8 z4 G4 x4 | G4 G4 A8 x2 | F4 E2 D2 E4 F4 x4 | G4 E4 D8 x8 | z4 d8 c4 | %229
w: cy, qu'ils def-|ail- * * *|lent: Et|rends con- fun-|dus * * * *|et de- struits|Tous ceux|
 d8 B8 x4 | c12 B4 | A4 G2 F2 A4 G4 x16 | A12 G4 | G8 E8 | F6 E2 D8 | C4 c8 B4 x4 | %236
w: qui ma~|vie tra-|vail- * * * lent|Car ton|hum- ble|ser- vi- teur|suis. Car ton|
 d4 c4 B4 A6 x2 | G2 G8 F4 G4 | B4 c4 c4 B16 | x16 | x16 |] %241
w: hum- ble ser- vi-|* * teur suis.|ser- vi- teur suis.|||
V:3
 G16 x8 | A8 B4 B4 x8 | c12 A8 | G4 A2 G2 c4- x4 |[M:4/2][K:treble-8] c4 B4 c8 x4 | z8 C8 | %6
w: Seig-|neur Dieu, oy|l'o- rai-|son mien- * *|* * ne:|Ius-|
 G8 G4 A8 | B4 c4 B4 x4 | A2 G2 c8 B4 x4 | c8 z16 | z16 x4 | z4 G4- x8 | G4 A8 G4 x8 | %13
w: qu'à tes au-|reil- les par-|vien- * * *|ne,||Mon|* hum- ble|
 E4 F4 G4 G4 x4 | C8 z16 | z4 c4 x8 | B4 A8 G8 | F4 G4 G4 A8 x4 | B4 c8 B4 x4 | c4 e4 x8 | %20
w: sup- pli- ca- ti-|on.|Se-|lon la vray-|e mer- cy tien-|ne Res- ponds|moy en|
 d4 e6 d2 c2 B2 x4 | A4 A4 G4 G4 x6 | A4 G8 F4 x12 | G8 z4 B4 | B4 c4 B4 G4 | A4 c4 B8 | %26
w: af- flic- * * *|* ti- on en|af- flic- ti-|on. A-|vec son ser- vi-|teur n'es- tri-|
 B4 e4 e4 c4 | d4 G4 A4 c4 | B8 B4 G8 | c4 A4 d8 x8 | B4 c4 A8 x4 | G2 F2 G4 A6 G2 | G8 F4 x4 | %33
w: ve, Et en plein|iu- ge- ment n'ar-|ri- ve, Pour|ses of- fen-|ces luy prou-|||
 G16 | z8 z4 G4 x8 | A4 c4 G4 A4 | c4 A4 G8 | C4 c4 c4 B4 | c4 c4 d4 d4 x8 | G4 G4 c12 | %40
w: ver:|Car|de- vant toy hom-|me qui vi-|ve Ius- te ne|se pour- ra trou-|ver ne se|
 B4 A4 A4 G8 | B8- x8 | B8 c16 | z8 d8 | f12 f4 | e4 e4 x8 | d4 c4 d8 | c8 z4 e4 x8 | e4 d4 c6 B2 | %49
w: pour- ra trou- ver.|Làs,|* las|las|mon en-|ne- my|m'a fait guer-|re, A|pros- ter- né ma|
 A4 G4 d8 x2 | G4 E4 F4 G4 x2 | D8 G6 F2 | E2 D2 D8 C4 x4 | D4 d8 B4 | d4 e4 d4 c4 | %55
w: vie en ter-|re, ma vie en|ter- * *||re, En- cor|ne luy est pas|
 B2 A2 c8 B4 x4 | c8 z8 | z4 C4 G4 G4 | E4 C4 C2 D2 E2 F2 x8 | G4 c4 B2 A2 B2 c2 | d2 c2 c8 B4 | %61
w: * * * as-|sés:|En ob- scu-|re fos- se * * *|* m'en- ser- * * *||
 c8 z4 C4 | G4 G4 E4 F4 | A8 G8 x8 | G4 D4 F4 F4 x12 | E4 C4 D8 x4 | F16 x20 | D16 x4 | %68
w: re. Com-|me ceux qui sont|tres- pas-|sés, com- me ceux|qui sont tres-|pas-|sés.|
 z4 G8 A4 x4 | G4 A8 G4 | c4 G4 A4 F2 G2 x4 | A2 B2 c2 B2 A2 G2 G2 FE x16 | F8 E4 c8 | B4 B8 c6 | %74
w: Dont mon|ame ain- si|em- pres- sé- * *||* e, De|dou- leur se|
 B2 A4 G8 F4 | G4 A4- x8 | A4 G8 F4 | G4 G4 E4 F4 | G2 A2 B2 c2 d4 B4 | e4 d6 c2 c8 | B4 c8 z4 | %81
w: * trou- ve op-|pres- sé-||e, Cuy dant m'as|* * * * * a-|ban- don- * *|* né:|
 E8 C4 D4 x2 | E4 E4 F4- x8 | F4 G4 A4 B4 x4 | c4 d4 B4 c6 | B2 A2 G2 F4 G6 | F2 F2 ED E8 x2 | %87
w: I'en sens de-|dans moy ma|* pen- sé- e|Trou- blé- * *|||
 D4 d4 B4 G4 | A4 A4 G4 G4 x2 | F4 D4 E4 E4 x14 | D4 F4 G4 A6 || G2 G8 F4 G16 | z16 x2 | z8 C8 x2 | %94
w: e, Et mon cueur|es- ton- né. et|mon cueur es- ton-|né. es- ton- *|* * * né.||Ne|
 G4 G4 G4 E4 | F4 A4 G4 c4- | c4 B2 A2 B6 c2 | d4 c8 B4 | c4 G4 A4 c4 | B4 d4 c4 B4 | %100
w: ces- te fosse ob-|scu- re et noi-|||re, Des iours pas-|sés i'ay eu me-|
 A2 G2 c8 B4 x4 | c8 z8 | G8 A8 | B4 c8 d4- | d4 e6 d2 c8 x4 | B4 A4 d4 d4 x8 | e4 d4 c4 B4 | %107
w: moi- * * *|re:|Là i'ay|tes oeu- vres|* me- * *|di- tés, Et pour|con- fort con- so-|
 A4 B8 x4 | B4 G4 A4 B4 x8 | c4 G2 A2 B2 A2 B2 c2 x4 | d4 G2 A2 B2 c2 d8 | c8 B4 x8 | c4 c4 d4 d4 | %113
w: la- toi-|re, Les faits de|tes mains * * * * *|* re- * * * *|* ci-|tés. La de- dans|
 e8 c4 d8 | B4 c8 A4 | F4 G4 A4 B4 | c4 d4 e4 x4 | f8 e8 | z8 A8 | B4 c8 B4 | A4 G4 F8 | %121
w: à toy ie|sou- spi- re,|A toy ie tends|mes mains, o|Si- re,|Et|mon am en|sa grand *|
 E4 G4 A4 c6 | BA B4 c8 z4 | G4 G4 G4 d2 c2 | B2 A2 B8 x8 | G4 z4 G8 x4 | E4 A4 G4 G4 | %127
w: cla- meur, A soif|de * * toy,|Et te de- si- *||re, Com-|me sei- che ter-|
 F4 D4 E2 F2 G2 FE x4 | F2 E2 E2 DC D8 x4 | C16 x4 | z16 x4 | z4 c8 B4 x4 | B4 e8 d4 | %133
w: re l'hu- * * * * *||meur.||Has- te|toy, sois moy|
 e4 d4 c2 B2 A2 G2 x4 | A2 G2 G6 FE F4 | G8 D8 | z4 c8 B4 x4 | A8 G4 c4 | c4 B4 e8 | d4 G4 G4 G4 | %140
w: se- cou- ra- * * *||* ble,|L'es- prit|me faut, de|moy dam- na-|ble Ne cha- che|
 c6 A2 d4 c4 | B4 B4 B4 B4 | A4 G4 c4 c4 | B4 A2 G2 A2 G2 c4- | c4 B4 c4 c8 | B4 A4 G4 F4 | %146
w: ton vi- sa- ge|beau: Au- tre- ment|ie m'en vois sem-|bla- * * * * *|* * ble A|ceux q'on de valle|
 E4 D4 C4 z4 | e8 d4 c4 | B4 A4 G4 x4 | A2 G2 A2 B2 c4 B4 | A2 G2 G8 F4 || G16 | G16 x4 | %153
w: au tom- beau|à ceux q'on|de valle au|tom- * * * * *||beau.|Fais|
 c8 B8 x4 | A8 ^G4 c8 | c4 A8 B4 x12 | G4 d8 G4 | z2 G2 A4 G4 x8 | c6 B2 A2 G2 G8 | F4 G8 z4 | %160
w: moy donc|ouyr de bon-|ne heu- re|Ta gra- ce:|car en toy|m'as- * * * seu-|* re|
 A4 B4 B4 G4 | c4 B6 AG x4 | A4 A4 B2 A2 B2 c2 x4 | d8 A4 c8 | B4 c4 c4 e8 | d4 e4- e2 d2 c8 x4 | %166
w: Et du che- min|que te- * *|* nir doy, * * *|* don- ne|m'en cog- nois- *|an- ce * * *|
 B4 x12 | c8 z4 A4 x16 | c12 d4 | e8 e8 x8 | A6 B2 c4 A8 | G2 F2 G4 A4 x12 | D4 F8 G4 | A8 c12 | %174
w: |re: Car|i'ay le-|vé mon|cueur * * à||toy. O Seig-|neur Dieu,|
 B2 A2 B4 B4 d4 | d4 G8 G4 | G4 G4 G4 x4 | B4 B4 A4 A4 x8 | G4 G4 z4 d8 | c8 B4 A4 | %180
w: * * * mon es-|pe- ran- ce,|Don- ne moy|plei- ne de- li-|vran- ce De|mes pour- suy-|
 A4 G6 FE F4 x4 | F4 E4 A4 x4 | G4 G4 D2 E2 F2 G2 | A4 E4 F4 D4 x2 | E8 C4 C4 | F4 A4 G4 F4 x8 | %186
w: vans * * * en-|ne- mys, Puis|que chés toy, * * *|* pour as- seu-|ran- ce, Ie|me suis à re-|
 E4 E4 D8 x4 | d4 d4 d4 B4 | e4 c4 A4 d8 x4 | B4 z8 z4 | G8 c8 x4 | B4 e4 e4 d4 | d4 c8 x8 | %193
w: fu- ge mis.|En- seig- ne moy|comme il faut fai-|re|Pour bien|ta vo- lun- té|par- fai-|
 B6 AG A8 | G8 z16 | z4 G4 A4 B4 x2 | c8 x10 | B2 A2 BAGF E4 E8 | F4 G4 A4 z4 | G4 A4 B4 c4 x8 | %200
w: |re.|Fais que ton|es-|prit * * * * * * de-|bon- nai- re|Me gui- de et|
 e8 d8 x12 | c6 B2 B4 x4 | c8 z4 e4 | e8 d8 | e12 d4 | c4 B4 e8 | d4 d4 d4 d4 | c4 A4 B4 B4 | %208
w: meine au|droit * sen-|tier. O|Seig- neur|en qui|ie me fi-|e, Res- tau- re|moy et vi- vi-|
 G2 A2 B2 c2 d8 | G4 A6 G2 G8 | F4 G4 z4 z4 x8 | d4 d4 d4 x4 | e6 d2 c4 B4 | A4 A4 d4 d4 x4 | %214
w: fi- * * * *||* e|Pour ton nom|craint et re- dou-|té, Re- ti- re|
 B4 B4 G4 G4 x4 | c16 x4 | d8 z8 | z4 G8 A8 | B8 c8 x8 | A8 F4 G8 | A4 c4- x8 | c4 B4 d6 d2 | %222
w: de lan- guer ma|vi-|e,|Pour mon-|strer ta|ius- te bon-|té. Tout|* mes en- ne-|
 A4 c8 B4 | e8 A4 e4 | e4 e4 d12 | d4 B4 c4 x6 | A8 A4 A8 | B8 B4 c12 | F4 A4 A4 G4 | d8 c4 d8 | %230
w: mys que m'as-|sail- lent, Fais,|par ta mer-|cy, qu'ils def-|fail- lent: Et|rends con- fun-|dus et des- truits|Tous ceux qui|
 B8 G4 G4 | A8 G24 | z16 | c12 c4 | B8 A4 A4- | A2 A2 A4 G4 G8 | E4 G8 A8 | d8 c4 B4 x2 | %238
w: ma vie tra-|vail- lent.||Car ton|hum- ble ser-|* vi- teur suis, car|ton hum- ble|ser- vi- *|
 A8 G16- x4 | G16 | x16 |] %241
w: teur suis.|||
V:4
 C,16 x8 | A,,8 G,,8 x8 | C,8 F,8 x4 | E,4 E,4 A,8 |[M:4/2] G,6 F,2 E,2 D,2 C,8 | B,,4 A,,8 G,,4 | %6
w: Seig-|neur Dieu,|oy l'o-|rai- son mien-||* * ne:|
w: ||||||
 G,,4 C,4 C,4 D,4 x4 | D,4 E,8 x4 | F,8 D,8 x4 | C,8 z4 G,4 x8 | A,12 G,4 x4 | E,4 F,4 G,4 G,4 | %12
w: Ius- qu'à tes au-|reil- les|par- vien-|ne, Mon|hum- ble|sup- pli- ca- ti-|
w: ||||||
 C,16 x8 | z4 C8 B,4 x4 | A,4 G,4 F,4 G,8 x4 | F,4 E,4 D,2 C,2 x4 | D,8 C,4 B,,4 x4 | %17
w: on.|Se- lon|la vray- e mer-|cy tien- * *||
w: |||||
 A,,8 G,,4 G,8 x4 | F,4 G,4 A,4 G,8 | F,4 C,4 x8 | G,8 C,8 x4 | D,8 E,4 C,8 x2 | %22
w: * ne. Res-|ponds moy en af-|flic- ti-|on, Res-|ponds moy en|
w: |||||
 E,4 D,4 D,4 G,,16 | z16 | z16 | z4 C,4 C,4 E,4 | D,4 C,4 F,4 A,4 | G,8 G,8 | C,8 F,4 D,4 x4 | %29
w: af- flic- ti- on.|||Et en plein|iu- ge- ment n'ar-|ri- ve,|Pour ses of-|
w: |||||||
 G,6 F,2 E,4 F,4 x8 | D,8 C,8 x4 | z8 D,8 | E,4 G,4 C,4 E,4 | F,4 C,4 G,4 F,2 E,2 | D,4 C,4 z16 | %35
w: fen- * ces lui|prou- ver:|Car|de- vant toy *|hom- me qui vi- *|* ve.|
w: ||||||
 z4 G,4 x8 | G,4 E,4 F,4 G,4 | C,4 E,4 D,8 | C,8 z16 | z16 x4 | G,8- x12 | G,8 z8 | C,8 z4 C4 x8 | %43
w: Ius-|te ne se pour-|ra trou- ver|||Làs,||las las|
w: ||||||||
 G,4 G,4 D,4 D,4 | F,4 F,4 C,2 D,2 E,2 F,2 | G,4 A,4 G,8 | C,8 C8 | C4 B,4 A,6 G,2 x8 | %48
w: mon en- ne- my|m'a fait guer- * * *||re, A|pros- ter- né ma|
w: |||||
 F,4 E,4 D,8 | C,8 z4 G,4 x2 | G,4 F,4 E,4 D,4 x2 | C,4 B,,4 A,,8 | G,,8 G,12 | E,4 G,4 A,4 G,4 | %54
w: vie en ter-|re, A|pros- ter- né ma|vie en ter-|re, En-|cor ne luy est|
w: ||||||
 F,4 G,8 C,4 | C,4 C,4 B,,4 x8 | C,4 A,,4 G,,4 G,,4 | G,4 G,4 E,4 C,4 | %58
w: pas as- sés|ne luy est|pas as- sés: En|ob- scu- re fos-|
w: ||||
 C,2 D,2 E,2 F,2 G,4 E,4 x8 | F,2 E,2 D,2 C,2 D,8 | C,16 | z16 | F,,8 C,4 C,4 | G,,8 A,,16 | %64
w: se * * * * m'en-|ser- * * * *|re,||Com- me ceux|qui sont|
w: ||||||
 G,,8 F,,16 x4 | G,,16- x4 | G,,16 x20 | z16 x4 | z16 x4 | z16 | z16 x4 | z4 G,4 G,4 G,4 x16 | %72
w: tres- pas-|sés.||||||De dou- leur|
w: ||||||||
 A,6 G,2 F,4 G,4 x4 | D,8 C,4 C,4 x2 | A,,4 B,,4 C,4 D,4 x2 | G,,2 A,,2 B,,2 G,,2 A,,4 A,,4 | %76
w: se trouve op- pres-|sé- e, Cuy|dant qui m'as a-|ban- * * * * don-|
w: ||||
 G,,8 z4 G,4 | E,4 F,4 G,4 A,4 | G,4 G,4 C,8 | z4 C,8 A,,4 x4 | B,,4 C,4 C,4 D,4- | %81
w: né, cuy|dant que m'as a-|ban- don- né|I'en sens|de- dans moy ma|
w: |||||
 D,4 E,4 F,4 G,4 x2 | F,4 D,4 E,6 D,2 x4 | C,4 D,8 C,4 x4 | D,8 A,,8 x2 | z8 G,8 | %86
w: * pen- sé- e|Trou- blé- * *||* e,|Et|
w: |||||
 F,4 D,4 E,4 E,4 | D,8 z8 | z4 D,4 C,4 A,,4 x2 | B,,6 C,2 D,4 D,4 x14 | G,,16 x2 || z16 x14 | %92
w: mon cueur es- ton-|né.|et mon cueur|es- * * ton-|né.||
w: ||||||
 z16 x2 | z16 x2 | z8 C,8 | G,4 G,4 G,4 E,4 | F,4 A,4 G,8 | C,8 z4 C,4 | D,4 F,4 E,4 G,4 | %99
w: ||Ne|ces- te fosse ob-|scure et noire|* Des|iours pas- sés i'ay|
w: |||||||
 F,4 E,4 D,8 | C,2 D,2 E,2 F,2 D,2 C,2 C8 | B,4 C4 C,4 D,4 | E,4 F,8 x4 | G,8 A,6 G,2 | %104
w: eu me- moi-||* re. Là i'ay|tes oeu-|vres me- *|
w: |||||
 F,4 G,4 D,8 x8 | z4 G,4 G,4 A,4 x8 | G,4 F,4 E,4 D,4 | G,6 F,E, D,8 | C,8 z16 | z8 G,8 x4 | %110
w: * di- tés,~|Et pour con-|fort con- so- la-|toi- * * *|re,|Là|
w: ||||||
 G,4 G,4 x12 | A,8 F,4 G,8 | E,4 F,6 E,2 D,4 | E,8 D,2 C,2 D,8 | C,4 C,4 D,4 E,4 | F,4 G,4 x8 | %116
w: de- dans|à toy ie|sou- spi- * *||re, A toy ie|tends mes|
w: ||||||
 A,4 B,4 C6 B,2 | A,4 G,4 F,8 | E,4 A,,8 B,,4 | C,8 A,,4 B,,4 | C,8 A,,8 | G,,4 G,,4 A,,4 C,6 | %122
w: mains, o Si- *||re, Et mon|ame en sa|grand' *|cla- meur A soif|
w: ||||||
 B,,A,, B,,4 C,4 E,4 D,4 | D,4 G,6 F,2 x4 | E,2 D,2 E,4 C,4 C,8 | A,,4 B,,4 C,4 D,8 | %126
w: de * * toy, et te|de- si- *|* * * re, Com-|me sei- che ter-|
w: ||||
 C,4 B,,4 A,,8 | G,,8 x12 | z4 G,8 C,4 x4 | C,4 C8 A,4 x4 | B,4 C4 G,12 | F,2 E,2 A,8 G,8 | z8 x8 | %133
w: * re l'hu-|meur.|Has- te|toy, sois moy|se- cou- ra-|* * * ble,||
w: |||||||
 z8 z4 C8 | B,4 A,8 G,4 | E,4 F,4 G,4 D,4 | D,4 E,4 C,4 G,8 | C,8 x8 | z4 C,4 C,4 C,4 | %139
w: L'es-|prit me faut,||de moy dam- na-|ble|Ne ca- che|
w: ||l'es- prit me faut||||
 A,,4 A,,4 B,,4 C,4 | G,,4 G,4 G,4 G,4 | F,4 E,4 A,4 A,4 | G,4 F,2 E,2 F,2 E,2 E,2 D,C, | D,8 C,8 | %144
w: ton vi- sa- ge|beau: Au- tre- ment|ie m'en~ vois sem-|bla- * * * * * * *|* ble|
w: |||||
 G,8 F,4 E,4 x4 | D,4 C,4 B,,4 A,,4 | G,,4 C8 B,4 | A,4 G,4 F,4 E,4 | D,8 C,4 G,,4 | %149
w: A ceux q'on|de valle au tom-|beau * *||* * qu'on|
w: ||* A ceux|q'on de valle au|tom- beau *|
 C,4 B,,4 A,,4 A,,4 | G,,16 || C,16 | C,8 G,,8 x4 | D,8 E,4 C,8 | C,4 F,8 E,4 x4 | E,4 D,8 C,16 | %156
w: de- valle au tom-|beau.|Fais|moy donc|ouyr de bon-|ne heu- re|Ta gra- ce:|
w: |||||||
 z4 C,8 C,4 | D,4 D,4 E,8 x4 | D,8 z4 G,,4 x4 | C,4 C,4 G,,4 G,4- | G,4 F,4 E,8 | D,8 z4 C,4 | %162
w: car en|toy m'as- seu-|re: Et|du che- min que|* te- nir|doy Don-|
w: ||||||
 F,4 D,4 C,12 | C,4 G,4 E,4 A,8 | G,4 G,,4 x12 | C,12 D,4 x8 | E,4 C,4 F,8 | E,8 A,,24 | z16 | %169
w: ne m'en cog-|nois- san- ce seu-|re: Car|i'ay le-|vé mon coeur|à toy||
w: |||||||
 z8 D,16 | C,8 C,8 x4 | G,8 G,,8 x8 | C,4 B,,4 C,8 | G,,4 G,4 x12 | G,4 G,4 F,4 D,4 | %175
w: O|Seig- neur|Dieu mon|es- pe- ran-|ce Don-|ne moy plei- ne|
w: ||||||
 E,4 E,4 D,4 D,4 | z16 | z16 x8 | z16 x4 | z16 | z16 x4 | z16 | z16 | z16 x2 | z4 G,4 G,4 G,4 | %185
w: de- li- vran- ce|||||||||En- seig- ne|
w: ||||||||||
 E,4 A,4 F,4 D,4 x8 | G,8 E,4 C,4 x4 | G,4 G,4 E,4 C,4 | G,4 G,4 C,8 x8 | G,,4 G,4 E,4 F,4 | %190
w: moy com- me il|faut faire pour|bien ta vo- lun-|té par- fai-|re, car tu es|
w: |||||
 G,8 D,4 F,4 x4 | E,6 D,2 C,4 B,,4 | A,,8 G,,8 x4 | z16 | z4 G,,4 C,12 x4 | D,4 E,4 F,4 G,6 | %196
w: mon vray Dieu|en- * * *|* tier:||Me guide|et meine au droit|
w: ||||||
 F,E, F,4 G,4 C,8 | z16 x4 | z8 x8 | z8 C,16 | G,8 C,4 C,8 x8 | B,,4 C,4 G,,4 A,,2 B,,2 | %202
w: * * * sen- tier.|||O|Seig- neur en|qui ie me fi- *|
w: ||||||
 C,2 B,,2 G,,2 A,,2 B,,2 C,2 D,4 | B,,4 x12 | A,,4 D,4 G,,4 G,4 | G,4 G,4 F,4 D,4 | %206
w: ||* * e. Res-|to- re moy et|
w: ||||
 E,4 F,4 G,6 F,E, | D,8 C,4 D,4 | F,4 G,4 D,6 C,B,, | A,,4 B,,4 C,4 G,,4 x4 | D,8 z16 | %211
w: vi- vi- fi- * *|* e, Pour|ton nom craint * *|* et re- dou-|té:|
w: |||||
 C,8 C,4 C,4 | A,,4 A,,4 x8 | G,,4 G,,4 A,,8 x4 | G,,8 C,8 x4 | D,8 E,8 x4 | F,8 D,8 | %217
w: Re- ti- re|de lan-|guer ma vi-|e, Pour|mon- strer|ta ius-|
w: ||||||
 C,8 A,,8 x4 | G,,8 z16 | z16 x4 | z4 C,4 C,4 C,4 | G,12 D,4 | E,4 C,4 x8 | D,8 A,,8 | %224
w: te bon-|té.||Fais, par ta|mer- cy,|qu'ils def-|fail- lent:|
w: |||||||
 z4 G,,4 G,,4 G,,4 x4 | C,8 A,,4 D,6 | C,2 A,,2 B,,2 C,4 D,4 G,,4 x2 | G,8 F,4 x12 | G,8 E,8 | %229
w: Et rends con-|fun- dus et|* * * * de- truits|Tous ceux|qui ma|
w: |||||
 D,4 D,4 E,8 x4 | C,4 C,4 G,,2 A,,2 B,,2 C,2 | D,8 C,8 x16 | F,,12 C,4 | G,,8 A,,8 | %234
w: vie tra- vail-|lent tra- vail- * * *|* lent,|Car ton|hum- ble|
w: |||||
 F,,4 F,,4 G,,8 | C,8 z4 G,4 x4 | D,4 A,4 G,4 D,4 x4 | F,4 G,4 D,8 x2 | z4 G,4 C,4 C,4 x12 | %239
w: ser- vi- teur|suis. Car|ton hum- ble ser-|vi- teur suis|ser- vi- teur|
w: |||||
 G,,16 | x16 |] %241
w: suis.||
w: ||

